tools/download-figma-icons/icons/outlined-medium/price-guarantee.svg

<svg width="24" height="24" viewBox="0 0 24 24" fill="none" xmlns="http://www.w3.org/2000/svg">
<path fill-rule="evenodd" clip-rule="evenodd" d="M6.75008 8.24985C6.33534 8.24985 6.0001 7.9146 6.0001 7.49986C6.0001 7.08512 6.33534 6.74988 6.75008 6.74988H7.52106C7.50456 6.49939 7.50456 6.24964 7.52106 5.9999H6.75008C6.33534 5.9999 6.0001 5.66465 6.0001 5.24991C6.0001 4.83517 6.33534 4.49918 6.75008 4.49918H7.82631C8.09255 3.73345 8.52154 3.01197 9.12603 2.39923C11.0055 0.494273 13.9687 0.20403 16.1729 1.7115C16.5156 1.94549 16.6034 2.41198 16.3686 2.75397C16.1361 3.09596 15.6696 3.18371 15.3269 2.94972C13.7234 1.85399 11.5642 2.06549 10.194 3.45296C9.88501 3.7657 9.65401 4.12494 9.46502 4.49918H12C12.4147 4.49918 12.7499 4.83517 12.7499 5.24991C12.7499 5.66465 12.4147 5.9999 12 5.9999H9.03603C9.01428 6.24964 9.01428 6.49939 9.03678 6.74988H12C12.4147 6.74988 12.7499 7.08512 12.7499 7.49986C12.7499 7.9146 12.4147 8.24985 12 8.24985H9.46577C9.65476 8.62334 9.88576 8.98183 10.194 9.29457C11.2792 10.3933 12.8587 10.7803 14.3182 10.298C14.6594 10.1863 14.9984 10.0161 15.3261 9.79181C15.6696 9.55782 16.1346 9.64556 16.3686 9.98606C16.6026 10.328 16.5156 10.7953 16.1736 11.0293C15.7289 11.3338 15.2624 11.5678 14.7861 11.7238C14.2154 11.9113 13.6312 12.0035 13.0529 12.0035C11.6025 12.0035 10.1903 11.426 9.12603 10.3483C8.52154 9.73631 8.0933 9.01558 7.82631 8.24985H6.75008ZM11.939 22.4453L22.1957 17.4467C22.4635 17.3154 22.576 16.9907 22.4455 16.7222C22.3817 16.5917 22.2722 16.4942 22.135 16.4477C21.9977 16.4004 21.8515 16.4087 21.7218 16.4724L17.0276 18.7561C17.0221 18.7593 17.0157 18.7604 17.0092 18.7615C17.0035 18.7624 16.9977 18.7634 16.9924 18.7659C16.7104 18.9129 16.3946 19.0044 16.0541 19.0044H9.10779C8.69305 19.0044 8.35781 18.6691 8.35781 18.2544C8.35781 17.8396 8.69305 17.5044 9.10779 17.5044H16.0541C16.3526 17.5044 16.5956 17.2622 16.5956 16.9637C16.5956 16.6659 16.3526 16.4229 16.0541 16.4229C16.0538 16.4229 16.0532 16.4227 16.0525 16.4226C16.0519 16.4224 16.0511 16.4222 16.0504 16.4222H10.9857C10.6468 16.4222 10.349 16.1942 10.2613 15.8664C10.2418 15.8019 9.68003 14.041 6.71235 14.041H1.49997V19.1971L11.939 22.4453ZM22.6232 15.0295C23.14 15.2072 23.5547 15.5747 23.794 16.0652C24.2867 17.0762 23.8652 18.3009 22.8535 18.7944L12.329 23.9235C12.3228 23.9268 12.3162 23.9274 12.3095 23.928C12.304 23.9285 12.2984 23.929 12.293 23.931C12.2015 23.9708 12.1047 23.9985 12.0027 23.9985C12.0021 23.9985 12.0015 23.999 12.0009 23.9992C12.0007 23.9992 12.0006 23.9993 12.0005 23.9993H11.9997C11.9986 23.9993 11.9973 23.9989 11.9961 23.9985C11.9949 23.9981 11.9937 23.9978 11.993 23.9978C11.9225 23.997 11.8535 23.9873 11.7875 23.967C11.7852 23.9666 11.7833 23.9664 11.7813 23.9661C11.7799 23.966 11.7785 23.9658 11.777 23.9655L0.527238 20.4653C0.213745 20.3686 0 20.0776 0 19.7491V13.291C0 12.8763 0.335992 12.541 0.749983 12.541H6.71235C9.77753 12.541 11.0217 14.0687 11.4762 14.9222H16.0541C16.0564 14.9222 16.0586 14.9237 16.0609 14.9237C17.0546 14.9275 17.8803 15.6437 18.0573 16.5872L21.0648 15.124C21.5553 14.8855 22.1087 14.851 22.6232 15.0295Z" fill="black"/>
</svg>

<svg width="24" height="24" viewBox="0 0 24 24" fill="none" xmlns="http://www.w3.org/2000/svg"><path fill-rule="evenodd" clip-rule="evenodd" d="M6.75 8.25a.75.75 0 1 1 0-1.5h.771c-.016-.25-.016-.5 0-.75h-.77a.75.75 0 1 1 0-1.5h1.075a5.59 5.59 0 0 1 1.3-2.1 5.518 5.518 0 0 1 7.047-.688.749.749 0 1 1-.846 1.238 4.023 4.023 0 0 0-5.133.503c-.309.313-.54.672-.729 1.046H12A.75.75 0 1 1 12 6H9.036c-.022.25-.022.5 0 .75H12a.75.75 0 1 1 0 1.5H9.466c.189.374.42.733.728 1.046a4 4 0 0 0 4.124 1.003 4.02 4.02 0 0 0 1.008-.506.75.75 0 0 1 .848 1.237 5.487 5.487 0 0 1-1.388.695 5.56 5.56 0 0 1-1.733.28 5.51 5.51 0 0 1-3.927-1.656 5.589 5.589 0 0 1-1.3-2.098H6.75Zm5.189 14.195 10.257-4.998a.544.544 0 0 0-.061-1 .534.534 0 0 0-.413.025l-4.694 2.284a.054.054 0 0 1-.019.006.061.061 0 0 0-.017.004 2.02 2.02 0 0 1-.938.238H9.108a.75.75 0 1 1 0-1.5h6.946a.542.542 0 0 0 0-1.081h-5.068a.75.75 0 0 1-.725-.557c-.02-.064-.581-1.825-3.549-1.825H1.5v5.156l10.439 3.248Zm10.684-7.415c.517.177.932.545 1.171 1.035a2.044 2.044 0 0 1-.94 2.73l-10.525 5.128a.05.05 0 0 1-.02.005l-.016.003a.727.727 0 0 1-.29.067L12 24h-.005l-.003-.001a.714.714 0 0 1-.206-.031h-.006l-.004-.002-11.25-3.5A.75.75 0 0 1 0 19.75v-6.458a.75.75 0 0 1 .75-.75h5.962c3.066 0 4.31 1.528 4.764 2.381h4.578l.007.002a2.04 2.04 0 0 1 1.996 1.663l3.008-1.463a2.024 2.024 0 0 1 1.558-.095Z" fill="currentColor"/></svg>
